public/img/srift.svg

<?xml version="1.0" encoding="UTF-8"?>
<svg width="40px" height="40px" viewBox="0 0 40 40" version="1.1" xmlns="http://www.w3.org/2000/svg" xmlns:xlink="http://www.w3.org/1999/xlink">
    <!-- Generator: Sketch 50.2 (55047) - http://www.bohemiancoding.com/sketch -->
    <title>Icons / Blue / Srift</title>
    <desc>Created with Sketch.</desc>
    <defs></defs>
    <g id="Icons-/-Blue-/-Srift" stroke="none" stroke-width="1" fill="none" fill-rule="evenodd">
        <g id="Group">
            <circle id="Oval" fill="#113060" cx="20" cy="20" r="20"></circle>
            <path d="M8.55066667,24 L13.3506667,12.72 L15.6226667,12.72 L20.4226667,24 L17.8466667,24 L16.8226667,21.488 L12.0866667,21.488 L11.0626667,24 L8.55066667,24 Z M12.9666667,19.312 L15.9426667,19.312 L14.4546667,15.68 L12.9666667,19.312 Z M24.3266667,24.16 C22.7106667,24.16 21.3826667,23.232 21.3826667,21.504 C21.3826667,19.632 22.8066667,18.768 24.8386667,18.768 C25.7026667,18.768 26.3266667,18.912 26.9346667,19.12 L26.9346667,18.976 C26.9346667,17.968 26.3106667,17.408 25.0946667,17.408 C24.1666667,17.408 23.5106667,17.584 22.7266667,17.872 L22.1186667,16.016 C23.0626667,15.6 23.9906667,15.328 25.4466667,15.328 C26.7746667,15.328 27.7346667,15.68 28.3426667,16.288 C28.9826667,16.928 29.2706667,17.872 29.2706667,19.024 L29.2706667,24 L26.9186667,24 L26.9186667,23.072 C26.3266667,23.728 25.5106667,24.16 24.3266667,24.16 Z M25.0626667,22.48 C26.1986667,22.48 26.9666667,21.856 26.9666667,20.976 L26.9666667,20.544 C26.5506667,20.352 26.0066667,20.224 25.4146667,20.224 C24.3746667,20.224 23.7346667,20.64 23.7346667,21.44 C23.7346667,22.096 24.2786667,22.48 25.0626667,22.48 Z" id="Aa" fill="#FFFFFF"></path>
        </g>
    </g>
</svg>

<svg width="40" height="40" xmlns="http://www.w3.org/2000/svg"><g fill="none" fill-rule="evenodd"><circle fill="#113060" cx="20" cy="20" r="20"/><path d="M8.55 24l4.8-11.28h2.273l4.8 11.28h-2.576l-1.024-2.512h-4.736L11.063 24H8.55zm4.417-4.688h2.976l-1.488-3.632-1.488 3.632zm11.36 4.848c-1.616 0-2.944-.928-2.944-2.656 0-1.872 1.424-2.736 3.456-2.736.864 0 1.488.144 2.096.352v-.144c0-1.008-.624-1.568-1.84-1.568-.928 0-1.584.176-2.368.464l-.608-1.856c.944-.416 1.872-.688 3.328-.688 1.328 0 2.288.352 2.896.96.64.64.928 1.584.928 2.736V24h-2.352v-.928c-.592.656-1.408 1.088-2.592 1.088zm.736-1.68c1.136 0 1.904-.624 1.904-1.504v-.432a3.771 3.771 0 0 0-1.552-.32c-1.04 0-1.68.416-1.68 1.216 0 .656.544 1.04 1.328 1.04z" fill="#FFF"/></g></svg>
